X: 1068
T: A Scotch Tune.
%R: reel, march
B: Henry Playford "Apollo's Banquet", London 1687 (5th Edition)
F: https://archive.org/details/apollosbanquetco01rugg
Z: 2017 John Chambers <jc:trillian.mit.edu>
M: C|
L: 1/8
K: F
% - - - - - - - - - -
|:\
f3c fcd>_e | c3F G3A | (cA)(GA) (cd)(cA) | e2g2 g2f>e |\
f3a (_ba)(gf) | (dc)(d/e/)f G3B | (cf)(dB) (cA)(fc) | A2F2 F2 :|
|: A>B |\
c>d(Bc) f3d | (cd)(cA) G3F | (Bd)(cA) (fd)(ec) | G2c2 c2d>e |\
f3a (b/a/)(g/f/) g>a | f>F (G/A/)B A2(GF) | d3c f3g | a2f2 f2 |]
% - - - - - - - - - -

%%sep 1 1 500
%%sep 1 1 500

